!!!COM: Corelli, Arcangelo
!!!OPR: Sonata da camera
!!!OPS: 4
!!!ONM: 12
!!!OMV: 3
!!!OTL: Giga
!!!OMD: Allegro
**kern	**fb	**kern	**kern
*part3	*part3	*part2	*part1
*staff3	*	*staff2	*staff1
*I"Violone & Cembalo	*	*I"Violino II	*I"Violino I
*clefF4	*	*clefG2	*clefG2
*k[f#c#]	*	*k[f#c#]	*k[f#c#]
*b:	*	*b:	*b:
*M12/8	*	*M12/8	*M12/8
*MM192	*	*MM192	*MM192
=1	=1	=1	=1
2.B	.	4.dd	(8ff#L
.	.	.	8dd)
.	.	.	8bJ
.	.	4.b	(8f#L
.	.	.	8dd)
.	.	.	8bJ
2.A	6	4.ff#	8cc#L
.	.	.	8ff#
.	.	.	8cc#J
.	.	[4.f#	(8aL
.	.	.	8cc#)
.	.	.	8ff#J
=2	=2	=2	=2
2.G	7	4.f#]	(8bbL
.	.	.	8b)
.	.	.	8cc#J
.	6	4.e	(8ddL
.	.	.	8cc#)
.	.	.	8bJ
4.F#	#	4.f#	4.a#X
4.D	6	[4.ff#	8r
.	.	.	(8bbL
.	.	.	8ff#J)
=3	=3	=3	=3
2.E	9	4.ff#]	(8ggL
.	.	.	8ee)
.	.	.	8ff#J
.	8	2.ee	(8ggL
.	.	.	8ee)
.	.	.	8ggJ
4.F#	7 #	.	(8a#XL
.	.	.	8f#)
.	.	.	8a#J
4.G	5	4.dd	8bL
.	.	.	8cc#
.	.	.	8ddJ
=4	=4	=4	=4
4.E	6 5	2.cc#	(8gL
.	.	.	8b)
.	.	.	8cc#J
4.F#	#	.	(8f#L
.	.	.	8b)
.	.	.	8a#XJ
4.BB	.	4.b	4.b
[4.B	.	4.b	8r
.	.	.	(8ddL
.	.	.	8bJ)
=5	=5	=5	=5
4.B]	4 2	4.cc#	(8eeL
.	.	.	8cc#)
.	.	.	8eeJ
4.A#X	6	4.cc#	(8ff#L
.	.	.	8cc#)
.	.	.	8ff#J
4.B	.	4.f#	(8ddL
.	.	.	8b)
.	.	.	8ddJ
*D:	*	*D:	*D:
[4.d	.	4.dd	(8ff#L
.	.	.	8dd)
.	.	.	8ff#J
=6	=6	=6	=6
4.d]	4 2	4.ee	(8ggL
.	.	.	8ee)
.	.	.	8ggJ
4.c#	6	4.ee	(8aaL
.	.	.	8ee)
.	.	.	8aaJ
2.d	.	2.a	(8ff#L
.	.	.	8dd)
.	.	.	8ff#J
.	.	.	(8aaL
.	.	.	8ff#)
.	.	.	8aaJ
=7	=7	=7	=7
*e:	*	*e:	*e:
2.d#X	6	4.ff#	(8bbL
.	.	.	8ff#)
.	.	.	8bbJ
.	.	4.ff#	(8bbL
.	.	.	8ff#)
.	.	.	8bbJ
4.E	.	4.b	4.gg
*b:	*	*b:	*b:
4.F#	#	4.a#X	[4.ff#
=8	=8	=8	=8
2.G	7	2.b	8ff#L]
.	.	.	8ee
.	.	.	8ddJ
.	6	.	4ee
.	.	.	8ff#
2.F#	#	2.a#X	2.ff#
=9:|!|:	=9:|!|:	=9:|!|:	=9:|!|:
*D:	*	*D:	*D:
2.d	.	2.ff#	(8aaL
.	.	.	8ff#)
.	.	.	8ggJ
.	.	.	(8aaL
.	.	.	8ff#)
.	.	.	8ggJ
4.c#	6	4.ee	(8aaL
.	.	.	8ee)
.	.	.	8aaJ
4.A	.	4.cc#	(8aaL
.	.	.	8ee)
.	.	.	8aaJ
=10	=10	=10	=10
4.d	.	4.a	(8ff#L
.	.	.	8aa)
.	.	.	8ff#J
4.r	.	4.r	(8ddL
.	.	.	8aa)
.	.	.	8ff#J
*e:	*	*e:	*e:
2.e	.	2.gg	(8bbL
.	.	.	8gg)
.	.	.	8aaJ
.	.	.	(8bbL
.	.	.	8gg)
.	.	.	8aaJ
=11	=11	=11	=11
4.d#X	6	4.ff#	(8bbL
.	.	.	8ff#)
.	.	.	8bbJ
4.B	#	4.dd#X	(8bbL
.	.	.	8ff#)
.	.	.	8bbJ
4.e	.	4.b	(8ggL
.	.	.	8bb)
.	.	.	8ggJ
4.r	.	4.r	(8eeL
.	.	.	8gg)
.	.	.	8eeJ
=12	=12	=12	=12
2.A	5 -	4.ee	(8ccnL
.	.	.	8ee)
.	.	.	8ccJ
.	6	4.ccn	(8aL
.	.	.	8ff#)
.	.	.	8eeJ
4.B	#	4.f#	(8dd#XL
.	.	.	8cc#X)
.	.	.	8bJ
4.G	6	4.b	(8eeL
.	.	.	8b)
.	.	.	8eeJ
=13	=13	=13	=13
4.A	6 5 #	2.aT	(8cc#L
.	.	.	8dd#X)
.	.	.	8eeJ
4.B	7 #	.	(8f#L
.	.	.	8ee)
.	.	.	8dd#XiJ
2.E	-	2.g	(8eL
.	.	.	8ee)
.	.	.	8ff#J
.	.	.	(8ggL
.	.	.	8ee)
.	.	.	8ff#J
=14	=14	=14	=14
*D:	*	*D:	*D:
2.C#	5	2.ee	(8ggL
.	.	.	8bb)
.	.	.	8ggJ
.	.	.	(8eeL
.	.	.	8aa)
.	.	.	8eeJ
2.D	.	2.a	(8ff#L
.	.	.	8dd)
.	.	.	8eeJ
.	.	.	(8ff#L
.	.	.	8dd)
.	.	.	8eeJ
=15	=15	=15	=15
*b:	*	*b:	*b:
2.AA#X	6	2.cc#	(8ff#L
.	.	.	8gg)
.	.	.	8ff#J
.	.	.	(8cc#L
.	.	.	8ff#)
.	.	.	8eeJ
4.BB	.	4.f#	(8ddL
.	.	.	8ff#)
.	.	.	8ddJ
4.B	.	4.ff#	(8bL
.	.	.	8dd)
.	.	.	8bJ
=16	=16	=16	=16
4.E	n6	4.gg	(8ccnL
.	.	.	8ee)
.	.	.	8ccJ
4.F#	7 #	4.ff#	(8a#XL
.	.	.	8ee)
.	.	.	8ff#J
4.G	.	4.b	(8ddL
.	.	.	8b)
.	.	.	8ddJ
4.D	6	4.dd	8ff#L
.	.	.	8bb
.	.	.	8ff#J
=17	=17	=17	=17
4.E	6 5 #	4.cc#	(8gg#XL
.	.	.	8aa#X)
.	.	.	8bbJ
4.F#	#	4r	(8cc#L
.	.	.	8bb)
.	.	8ff#	8aa#XiJ
4.BB	.	4.dd	(8bL
.	.	.	8dd)
.	.	.	8bJ
4.D	6	4r	(8f#L
.	.	.	8b)
.	.	8dd	8f#J
=18	=18	=18	=18
4.E	.	4.b	(8gL
.	.	.	8b)
.	.	.	8gJ
4.F#	6 4	4r	(8f#L
.	.	.	8b)
.	.	8dd	8f#J
4.F#	6	4.b	(8eL
.	.	.	8b)
.	.	.	8eJ
4.D	6	4r	(8f#L
.	.	.	8b)
.	.	8dd	8f#J
=19	=19	=19	=19
4.E	.	4.b	(8gL
.	.	.	8b)
.	.	.	8gJ
4.F#	#	4r	(8f#L
.	.	.	8b)
.	.	8f#	8a#XJ
2.BB	.	2.d	2.b
=:|!	=:|!	=:|!	=:|!
*-	*-	*-	*-
!!!system-decoration: [{s1,s2},s3]
!!!YEM: CC BY-NC-SA 4.0; CCARH; DCML
!!!RDF**kern: i = editorial accidental